X:1
T:Title
%%score { ( 1 3 ) | ( 2 4 ) }
L:1/8
M:6/8
K:G
V:1 treble nm="Grand Piano"
V:3 treble 
V:2 treble 
V:4 treble 
V:1
 z3 z2[Q:1/4=90] D | DGA BGA | B2 c B2 B | z3 .F3 | B3- B z D | DGA BGB | [EA]2 [Ec] [Ec]2 [EAc] | %7
 [DGB]AG A2 F |[M:5/8] G-G- G3 |[M:1/8] d |[M:3/4] dB Gd BG | [FA][EG] [FA] B2 d | dB AG FG | %13
 [DFA]4 z D | DG AB GB |[M:7/8] [EA]2 [Ec] [Ec]3 [EAc] |[M:3/4] [DGB][CDA] [B,DG] [CDA]2 [CDF] | %17
[M:5/8] [B,DG]-[B,DG]- [B,DG]3 |] %18
V:2
 z3 z2 [G,B,] | [G,B,][G,B,D][G,CF] [G,DG][G,B,][G,CG] | [G,DG]2 [G,EG] [G,DG]2 [G,DG] | %3
 D,D,D, z DD, | [G,DG]3- [G,DG] z [G,B,] | [G,B,][G,B,D][G,CE] [G,DG][G,B,D][G,DG] | %6
 [C,C]2 [C,A,] [C,A,]2 C, | D,[D,CD][D,B,D] [D,CD]2 [D,CD] | %8
[M:5/8][K:treble] [G,B,D]-[G,B,D]- [G,B,D]3 |[M:1/8] [G,B,G] | %10
[M:3/4] [G,B,G][G,DG] [G,B,D][G,B,G] [G,DG][K:bass][G,B,D] | %11
 [D,D][D,D] [D,D][K:treble] [G,DG]2 [G,B,G] | [G,B,G][G,DG] [CDF][K:bass][B,D] [A,CD][G,B,D] | %13
 D,4 z D, | [G,B,][K:treble][G,B,D] [G,CF][G,DG] [G,B,D][G,DG] | %15
[M:7/8][K:bass] [C,C]2 [C,A,] [C,A,]3 C, |[M:3/4] D,D, D, D,2 D, |[M:5/8] G,,-G,,- G,,3 |] %18
V:3
 x6 | x6 | x6 | [DFA][CDF][B,DG] [CA]B[EFc] | x6 | x6 | x6 | x6 |[M:5/8] x5 |[M:1/8] x | %10
[M:3/4] x6 | x6 | x6 | x6 | x6 |[M:7/8] x7 |[M:3/4] x6 |[M:5/8] x5 |] %18
V:4
 x6 | x6 | x6 | z3 .D,3 | x6 | x6 | x6 | x6 |[M:5/8][K:treble] x5 |[M:1/8] x | %10
[M:3/4] x5[K:bass] x | x3[K:treble] x3 | x3[K:bass] x3 | x6 | x[K:treble] x5 |[M:7/8][K:bass] x7 | %16
[M:3/4] x6 |[M:5/8] x5 |] %18

